X: 32143
T: Peter McArdle's Highland
R: strathspey
M: 4/4
K: Gmajor
|:GBdB cege|dgbg a2 (3aaa|GBdB cege|dc'ba g2 (3ggg:|
bgag bg e2|dgbg a2 (3aaa|bgag bg e2|dc'ba g2 (3ggg|
bgag bg e2|dgbg a2- a2|GBdB cege|dc'ba g2 (3ggg||

